X:1
T:La Sautillante
T:La Sautillante
T:Ferdinando Carulli
T:Notasyon: Musa Çetiner
T:www.gitaregitim.net
C:Ferdinando Carulli
Z:Notasyon: Musa Çetiner
Z:www.gitaregitim.net
%%score { ( 1 2 ) | ( 3 4 ) }
L:1/8
Q:1/4=80
M:2/4
K:G
V:1 treble-8 nm="Klasik Gitar" snm="Git."
V:2 treble-8 
V:3 tab stafflines=6 strings=E2,A2,D3,G3,B3,E4 
V:4 tab stafflines=6 strings=E2,A2,D3,G3,B3,E4 
V:1
 !3!G,B!0!A,c | !2!B,!4!ded | D!2!A!1!cA | !0!G!0!B !0!D!0!G |xBA,c | B,ded | DAcA | !0!G2 z2 :: %8
 E,!1!^G Be | A,!1!c B!tenuto!!2!A | D!2!A !1!c!3!f | !0!G!4!g !3!d!0!B |xBA,c | B,ded | DAcA | %15
 G2 z2 :| %16
V:2
 G,2 A,2 | B,4 | D4 | G2 D2 | G,2 x2 | x4 | x4 | !3!G,2 z2 :: E,4 | A,4 | D4 | G4 | G,2 x2 | x4 | %14
 x4 | G,2 z2 :| %16
V:3
 !6!x!2!B,!5!A,,!2!C | !5!B,,!2!D!1!E!2!D | !4!D,!3!A,!2!C!3!A, | !3!G,!2!B, !4!D,!3!G, | %4
 !6!x!2!B,!5!A,,!2!C | !5!B,,!2!D!1!E!2!D | !4!D,!3!A,!2!C!3!A, | !3!G,2 x2 :: %8
 !6!x!3!^G, !2!B,!1!E | !5!A,,!2!C !2!B,!tenuto!!3!A, | !4!D,!3!A, !2!C!1!F | !3!G,!1!G !2!D!2!B, | %12
 !6!x!2!B,!5!A,,!2!C | !5!B,,!2!D!1!E!2!D | !4!D,!3!A,!2!C!3!A, | !3!G,2 x2 :| %16
V:4
 !6!G,,2 !6!x2 | !6!x4 | !5!x4 | !4!x2 !5!x2 | !6!G,,2 !6!x2 | !6!x4 | !5!x4 | !6!G,,2 x2 :: %8
 !6!E,,4 | !6!x4 | !5!x4 | !4!x4 | !6!G,,2 !6!x2 | !6!x4 | !5!x4 | !6!G,,2 x2 :| %16

